X:351
T:Bonny Pit Laddie,The. RH.351
R:jig
S:Rev.R.Harrison’s MS,c1815,Cumbria
O:England
A:Temple Sowerby,Cumbria
Z:vmp.Simon Wilson. Review PJH, 2008.
M:6/8
L:1/8
Q:3/8=100
K:D
A|d<fd cAc|d<fd cAc|e3 c2A|\
d<fd cAc|def gec|d3 D2:|!
|:A|def g2e|f2d faf|e3 c2A|\
def gfe|faf gec|d3 D2:|!
|:A|dcB AGF|GAB cAc|e3 c2A|\
dcB AGF|GAB Adc|d3 D2:|

